images/logo5.svg

<?xml version="1.0" encoding="UTF-8" standalone="no"?>
<svg width="150px" height="60px" viewBox="0 0 150 60" version="1.1" xmlns="http://www.w3.org/2000/svg" xmlns:xlink="http://www.w3.org/1999/xlink" xmlns:sketch="http://www.bohemiancoding.com/sketch/ns">
    <!-- Generator: Sketch 3.3.3 (12081) - http://www.bohemiancoding.com/sketch -->
    <title>logo5</title>
    <desc>Created with Sketch.</desc>
    <defs></defs>
    <g id="Page-1" stroke="none" stroke-width="1" fill="none" fill-rule="evenodd" sketch:type="MSPage">
        <g id="logo5" sketch:type="MSArtboardGroup" fill="#FFFFFF">
            <path d="M142.672274,27.6466064 C142.888159,27.7425337 143.151138,27.8351052 143.462682,27.923748 C143.773573,28.0129637 144.125601,28.1215776 144.519499,28.2487714 C145.141199,28.4393164 145.703153,28.6497509 146.204627,28.8789288 C146.706101,29.1080249 147.134525,29.3784548 147.490551,29.6902186 C147.845925,30.0026372 148.118944,30.3809445 148.309527,30.8265319 C148.499539,31.2728559 148.595198,31.8137157 148.595198,32.4498482 C148.595198,33.2651486 148.445751,33.9491629 148.147511,34.5033642 C147.849272,35.0569107 147.455373,35.4998789 146.966469,35.8302225 C146.477646,36.1619575 145.92565,36.4003844 145.309908,36.5469764 C144.694166,36.6928318 144.075078,36.7660869 143.452725,36.7660869 C142.957862,36.7660869 142.449777,36.7281088 141.929694,36.6514979 C141.408876,36.5756237 140.891487,36.4670097 140.377362,36.3271293 C139.863237,36.1872489 139.367721,36.0214223 138.891468,35.8302225 C138.41595,35.6397593 137.974222,35.423268 137.568325,35.1814853 L139.167834,31.9156181 C139.612174,32.1953788 140.075776,32.4437913 140.558069,32.6602826 C140.964537,32.8514825 141.424874,33.0233659 141.938999,33.1758511 C142.453042,33.3284181 142.977124,33.405029 143.509859,33.405029 C143.916327,33.405029 144.198651,33.3510085 144.357402,33.2424764 C144.516153,33.1345991 144.595895,32.9913629 144.595895,32.8128496 C144.595895,32.6216498 144.516153,32.4598338 144.357402,32.3259284 C144.198651,32.192023 143.979501,32.0748149 143.700523,31.9729126 C143.420893,31.8710102 143.100697,31.7691079 142.738712,31.6672056 C142.376727,31.5652214 141.992786,31.4446574 141.58689,31.3041223 C140.989757,31.1009724 140.475714,30.8812072 140.043944,30.6453995 C139.612174,30.4095918 139.2568,30.1425176 138.977169,29.8434404 C138.698192,29.5443633 138.491612,29.2032974 138.358816,28.8216343 C138.225285,28.4393164 138.158847,28.0003589 138.158847,27.503452 C138.158847,26.7527307 138.294989,26.090652 138.568008,25.5171343 C138.841027,24.9442713 139.212317,24.4674176 139.681959,24.0850178 C140.151519,23.7033548 140.688253,23.4136084 141.291343,23.2164335 C141.894434,23.0186039 142.532132,22.9200574 143.205661,22.9200574 C143.700523,22.9200574 144.182735,22.968021 144.65303,23.0632936 C145.12259,23.1584843 145.576234,23.2797849 146.014697,23.426295 C146.452344,23.5728052 146.86224,23.732002 147.242835,23.9038854 C147.624082,24.075687 147.966805,24.2375849 148.271003,24.3908067 L146.671576,27.465474 C146.290981,27.2362961 145.897083,27.0324914 145.490615,26.854633 C145.14781,26.701493 144.763951,26.5582568 144.338792,26.4243514 C143.913062,26.2911827 143.497208,26.2239026 143.091393,26.2239026 C142.760586,26.2239026 142.497607,26.2751402 142.300984,26.3770426 C142.103708,26.4789449 142.005356,26.6508283 142.005356,26.892611 C142.005356,27.0711243 142.06249,27.2169796 142.176758,27.3315686 C142.291026,27.4461576 142.456388,27.5514157 142.672274,27.6466064 L142.672274,27.6466064 Z M127.227062,23.0346463 L136.692215,23.0346463 L136.692215,26.2811152 L130.940693,26.2811152 L130.940693,28.1914769 L135.853977,28.1914769 L135.853977,31.2089316 L130.940693,31.2089316 L130.940693,33.3477345 L136.863618,33.3477345 L136.863618,36.5942034 L127.227062,36.5942034 L127.227062,23.0346463 L127.227062,23.0346463 Z M116.580784,29.9293003 L116.580784,36.5942034 L112.867152,36.5942034 L112.867152,23.0346463 L115.761808,23.0346463 L121.189869,29.9293003 L121.189869,23.0346463 L124.903583,23.0346463 L124.903583,36.5942034 L121.951711,36.5942034 L116.580784,29.9293003 L116.580784,29.9293003 Z M109.439762,34.6179531 C108.86785,35.2481106 108.182323,35.7542664 107.382609,36.1359294 C106.582896,36.5183292 105.706786,36.7087924 104.75428,36.7087924 C103.789122,36.7087924 102.9104,36.5116175 102.116645,36.116613 C101.32289,35.7223452 100.644056,35.2034209 100.078755,34.5606587 C99.514189,33.9178964 99.0758076,33.1825627 98.7649167,32.3545756 C98.4534545,31.5273252 98.2979683,30.6740467 98.2979683,29.7954768 C98.2979683,28.9042202 98.4600657,28.0449667 98.7841791,27.2169796 C99.107721,26.3897292 99.5613654,25.6610253 100.145847,25.0302131 C100.729757,24.4001375 101.418549,23.8971738 102.212304,23.5215676 C103.005406,23.1465343 103.87817,22.9580354 104.830676,22.9580354 C105.795099,22.9580354 106.674555,23.1558651 107.46831,23.5502148 C108.261413,23.9451375 108.9409,24.4674176 109.506119,25.1161548 C110.070766,25.7656286 110.505801,26.5043182 110.810652,27.3315686 C111.115585,28.1595557 111.267643,29.0061225 111.267643,29.8720877 C111.267643,30.7632624 111.105627,31.6192419 110.782085,32.4405174 C110.458625,33.2617928 110.010939,33.9877957 109.439762,34.6179531 L109.439762,34.6179531 Z M107.325475,28.4679637 C107.211207,28.0416109 107.042498,27.6659228 106.820655,27.3415542 C106.598812,27.0165308 106.315835,26.7560865 105.973112,26.5582568 C105.630389,26.361082 105.230533,26.2625355 104.773542,26.2625355 C104.3039,26.2625355 103.900778,26.3644378 103.564014,26.5675876 C103.227902,26.7713923 102.948272,27.042477 102.726429,27.3795323 C102.503851,27.7172423 102.338489,28.0989054 102.230913,28.5251763 C102.123256,28.9521839 102.069469,29.3877856 102.069469,29.8334548 C102.069469,30.291647 102.123256,30.7346151 102.230913,31.1609679 C102.338489,31.5878936 102.507197,31.9662009 102.735652,32.2972812 C102.964188,32.6283614 103.249777,32.8960903 103.592581,33.0992402 C103.935304,33.3030448 104.33516,33.405029 104.792804,33.405029 C105.262446,33.405029 105.668914,33.2997709 106.011637,33.0899094 C106.35436,32.8801297 106.633337,32.6063439 106.849222,32.2686339 C107.065107,31.9315787 107.227205,31.545905 107.33478,31.1130043 C107.442355,30.6806765 107.496877,30.2410641 107.496877,29.7954768 C107.496877,29.3372028 107.439743,28.8948894 107.325475,28.4679637 L107.325475,28.4679637 Z M95.9366995,34.9136745 C95.556105,35.5124837 95.000762,35.9767326 94.2708337,36.3078129 C93.5401708,36.6388931 92.5597504,36.8047197 91.3282667,36.8047197 C90.1858305,36.8047197 89.207369,36.5243042 88.395086,35.9641279 L89.1761902,32.9274386 C89.2140619,32.9533848 89.2964165,32.9979926 89.4239071,33.0612621 C89.5501733,33.1252682 89.7095774,33.1885377 89.8995073,33.252462 C90.0901718,33.3163863 90.3093217,33.3736807 90.5571202,33.4243454 C90.8041842,33.4749283 91.0612874,33.5002197 91.3282667,33.5002197 C91.7215122,33.5002197 92.0390143,33.4369502 92.28012,33.3097565 C92.5212257,33.1825627 92.7058504,32.9754022 92.8327696,32.6889298 C92.9596072,32.4025393 93.0419618,32.033481 93.0804865,31.5812639 C93.1183582,31.1296197 93.1376206,30.5787742 93.1376206,29.9293003 L93.1376206,23.0346463 L96.851334,23.0346463 L96.851334,29.9293003 C96.851334,30.9604372 96.7942,31.8996575 96.6799319,32.7462243 C96.5656638,33.592873 96.3179468,34.3155201 95.9366995,34.9136745 L95.9366995,34.9136745 Z M75.1018691,29.9293003 L75.1018691,36.5942034 L71.3882372,36.5942034 L71.3882372,23.0346463 L74.2828932,23.0346463 L79.7109548,29.9293003 L79.7109548,23.0346463 L83.4246682,23.0346463 L83.4246682,36.5942034 L80.4727966,36.5942034 L75.1018691,29.9293003 L75.1018691,29.9293003 Z M67.960847,34.6179531 C67.3889351,35.2481106 66.7034081,35.7542664 65.9036946,36.1359294 C65.1039811,36.5183292 64.2278712,36.7087924 63.2753649,36.7087924 C62.3102075,36.7087924 61.4314857,36.5116175 60.6377305,36.116613 C59.8439752,35.7223452 59.1651411,35.2034209 58.5998404,34.5606587 C58.0352744,33.9178964 57.5968929,33.1825627 57.286002,32.3545756 C56.9745398,31.5273252 56.8190536,30.6740467 56.8190536,29.7954768 C56.8190536,28.9042202 56.9811511,28.0449667 57.3052644,27.2169796 C57.6288064,26.3897292 58.0824508,25.6610253 58.6669321,25.0302131 C59.2508421,24.4001375 59.939634,23.8971738 60.7333892,23.5215676 C61.5264915,23.1465343 62.399255,22.9580354 63.3517613,22.9580354 C64.3161841,22.9580354 65.1956404,23.1558651 65.9893956,23.5502148 C66.7824979,23.9451375 67.4619851,24.4674176 68.0272041,25.1161548 C68.5918518,25.7656286 69.0268868,26.5043182 69.3317378,27.3315686 C69.6366704,28.1595557 69.7887286,29.0061225 69.7887286,29.8720877 C69.7887286,30.7632624 69.6267127,31.6192419 69.3031707,32.4405174 C68.9797104,33.2617928 68.5320243,33.9877957 67.960847,34.6179531 L67.960847,34.6179531 Z M65.8465605,28.4679637 C65.7322924,28.0416109 65.5635837,27.6659228 65.3417403,27.3415542 C65.119897,27.0165308 64.8369202,26.7560865 64.4941975,26.5582568 C64.1514748,26.361082 63.751618,26.2625355 63.2946272,26.2625355 C62.8249853,26.2625355 62.4218637,26.3644378 62.0850993,26.5675876 C61.7489878,26.7713923 61.4693574,27.042477 61.2475141,27.3795323 C61.0249361,27.7172423 60.8595738,28.0989054 60.7519986,28.5251763 C60.6443417,28.9521839 60.5905541,29.3877856 60.5905541,29.8334548 C60.5905541,30.291647 60.6443417,30.7346151 60.7519986,31.1609679 C60.8595738,31.5878936 61.0282825,31.9662009 61.2567371,32.2972812 C61.4852734,32.6283614 61.770862,32.8960903 62.1136663,33.0992402 C62.456389,33.3030448 62.8562458,33.405029 63.3138895,33.405029 C63.7835315,33.405029 64.1899994,33.2997709 64.5327221,33.0899094 C64.8754448,32.8801297 65.1544223,32.6063439 65.3703074,32.2686339 C65.5861925,31.9315787 65.7482899,31.545905 65.8558652,31.1130043 C65.9635221,30.6806765 66.0179627,30.2410641 66.0179627,29.7954768 C66.0179627,29.3372028 65.9608286,28.8948894 65.8465605,28.4679637 L65.8465605,28.4679637 Z M52.382023,36.5942034 L49.8108274,32.4311865 L48.4205926,32.4311865 L48.4205926,36.5942034 L44.7069608,36.5942034 L44.7069608,23.0346463 L50.9154735,23.0346463 C51.5756983,23.0346463 52.1847473,23.1718257 52.7440897,23.4456114 C53.3020445,23.7193972 53.7815625,24.075687 54.1814192,24.5146446 C54.581276,24.9543388 54.8961662,25.4572206 55.1246208,26.0233719 C55.353157,26.5902599 55.4674251,27.159767 55.4674251,27.7325481 C55.4674251,28.5225571 55.296023,29.2578909 54.9533003,29.9386311 C54.609843,30.620108 54.1342428,31.1769285 53.5245408,31.6099111 L56.5719896,36.5942034 L52.382023,36.5942034 L52.382023,36.5942034 Z M51.3538549,26.6535294 C51.1246657,26.4056898 50.8962111,26.2811152 50.6676749,26.2811152 L48.4205926,26.2811152 L48.4205926,29.1846358 L50.7633337,29.1846358 C50.9918699,29.1846358 51.2044085,29.057442 51.4010313,28.8023179 C51.5975725,28.5478486 51.6965776,28.1914769 51.6965776,27.7325481 C51.6965776,27.2616693 51.5823095,26.9019419 51.3538549,26.6535294 L51.3538549,26.6535294 Z" id="Shape" sketch:type="MSShapeGroup"></path>
            <path d="M3.89112759,51 L3.89112759,48.4409011 L37.0669135,48.4409011 L37.0669135,15.1719612 L39.6188468,15.1719612 L39.6188468,51 L3.89112759,51 L3.89112759,51 Z M1.33911266,46.7347534 L1.33911266,12.6127805 L35.3656246,12.6127805 L35.3656246,15.1719612 L35.3656246,46.7347534 L3.89112759,46.7347534 L1.33911266,46.7347534 L1.33911266,46.7347534 Z M28.468565,32.7462243 C28.3543785,33.592873 28.1065799,34.3155201 27.7253325,34.9136745 C27.3447381,35.5124837 26.7893951,35.9767326 26.0594668,36.3078129 C25.3288039,36.6388931 24.3483835,36.8047197 23.1168998,36.8047197 C21.9744636,36.8047197 20.9960837,36.5243042 20.1837191,35.9641279 L20.9648232,32.9274386 C21.002695,32.9533848 21.0850496,32.9979926 21.2126218,33.0612621 C21.3388064,33.1252682 21.4982104,33.1885377 21.6881404,33.252462 C21.8788049,33.3163863 22.0980364,33.3736807 22.3457533,33.4243454 C22.5928173,33.4749283 22.8499205,33.5002197 23.1168998,33.5002197 C23.5101453,33.5002197 23.8276474,33.4369502 24.0687531,33.3097565 C24.3098588,33.1825627 24.4945651,32.9754022 24.6214027,32.6889298 C24.7482403,32.4025393 24.8305949,32.033481 24.8691196,31.5812639 C24.9069913,31.1296197 24.9262536,30.5787742 24.9262536,29.9293003 L24.9262536,23.0346463 L28.6399671,23.0346463 L28.6399671,29.9293003 C28.6399671,30.9604372 28.5828331,31.8996575 28.468565,32.7462243 L28.468565,32.7462243 Z M15.8609566,36.5942034 L13.2896794,32.4311865 L11.8994446,32.4311865 L11.8994446,36.5942034 L8.18581276,36.5942034 L8.18581276,23.0346463 L14.3943255,23.0346463 C15.0545503,23.0346463 15.6636809,23.1718257 16.2229417,23.4456114 C16.7808965,23.7193972 17.2604145,24.075687 17.6602712,24.5146446 C18.0602096,24.9543388 18.3750182,25.4572206 18.6034728,26.0233719 C18.832009,26.5902599 18.9462771,27.159767 18.9462771,27.7325481 C18.9462771,28.5225571 18.774875,29.2578909 18.4321523,29.9386311 C18.0887766,30.620108 17.6131764,31.1769285 17.0033928,31.6099111 L20.0508416,36.5942034 L15.8609566,36.5942034 Z M14.8327069,26.6535294 C14.6035177,26.4056898 14.3750631,26.2811152 14.1465269,26.2811152 L11.8994446,26.2811152 L11.8994446,29.1846358 L14.2421857,29.1846358 C14.4707219,29.1846358 14.6832606,29.057442 14.8798833,28.8023179 C15.0765061,28.5478486 15.1754296,28.1914769 15.1754296,27.7325481 C15.1754296,27.2616693 15.0611615,26.9019419 14.8327069,26.6535294 Z" id="Shape" sketch:type="MSShapeGroup"></path>
        </g>
    </g>
</svg>

<svg width="150" height="60" xmlns="http://www.w3.org/2000/svg"><g id="Page-1" stroke="none" stroke-width="1" fill="none" fill-rule="evenodd"><g id="logo5" fill="#FFF"><path d="M142.672 27.647c.216.096.48.188.79.277.312.089.664.198 1.057.325.622.19 1.184.4 1.686.63.501.229.93.5 1.286.811.355.313.628.69.819 1.137.19.446.285.987.285 1.623 0 .815-.15 1.5-.447 2.053a3.67 3.67 0 01-1.182 1.327 4.96 4.96 0 01-1.656.717 8.032 8.032 0 01-1.857.22c-.495 0-1.003-.039-1.523-.116a13.495 13.495 0 01-3.038-.821 9.445 9.445 0 01-1.324-.649l1.6-3.265c.444.28.908.528 1.39.744.407.191.867.363 1.381.516a5.513 5.513 0 001.57.229c.407 0 .69-.054.848-.163a.497.497 0 00.239-.43.615.615 0 00-.239-.486 2.176 2.176 0 00-.656-.353c-.28-.102-.6-.204-.962-.306a20.612 20.612 0 01-1.152-.363 9.86 9.86 0 01-1.543-.659 4.199 4.199 0 01-1.067-.802 2.868 2.868 0 01-.618-1.021 3.988 3.988 0 01-.2-1.319c0-.75.136-1.412.409-1.986a4.083 4.083 0 011.114-1.432 4.98 4.98 0 011.61-.869 6.101 6.101 0 011.914-.296c.495 0 .977.048 1.447.143.47.095.923.217 1.362.363.437.147.847.306 1.228.478s.724.334 1.028.487l-1.6 3.074a10.748 10.748 0 00-2.333-1.041 4.168 4.168 0 00-1.247-.2c-.33 0-.593.051-.79.153-.197.102-.296.274-.296.516 0 .178.057.324.172.439.114.114.28.22.495.315zm-15.445-4.612h9.465v3.246h-5.751v1.91h4.913v3.018h-4.913v2.139h5.923v3.246h-9.637v-13.56zm-10.646 6.894v6.665h-3.714v-13.56h2.895l5.428 6.895v-6.894h3.714v13.56h-2.952l-5.371-6.666zm-7.141 4.689a6.562 6.562 0 01-2.057 1.518c-.8.382-1.676.573-2.629.573-.965 0-1.844-.197-2.637-.592a6.582 6.582 0 01-2.038-1.556 7.086 7.086 0 01-1.314-2.206 7.206 7.206 0 01-.467-2.56c0-.89.162-1.75.486-2.578a6.86 6.86 0 011.362-2.187 6.689 6.689 0 012.066-1.508c.793-.375 1.666-.564 2.619-.564.964 0 1.844.198 2.637.592a6.537 6.537 0 012.038 1.566c.565.65 1 1.388 1.305 2.216.305.828.457 1.674.457 2.54 0 .891-.162 1.747-.486 2.569a7.067 7.067 0 01-1.342 2.177zm-2.115-6.15a3.654 3.654 0 00-.504-1.126 2.563 2.563 0 00-.848-.784c-.343-.197-.742-.295-1.2-.295-.47 0-.872.101-1.209.305a2.622 2.622 0 00-.838.812 3.707 3.707 0 00-.495 1.145 5.328 5.328 0 00-.162 1.308c0 .459.054.902.162 1.328.107.427.276.805.505 1.136.228.331.514.6.857.802.342.204.742.306 1.2.306.47 0 .876-.105 1.219-.315a2.58 2.58 0 00.837-.821c.216-.337.378-.723.486-1.156a5.44 5.44 0 00.162-1.318c0-.458-.057-.9-.172-1.327zm-11.388 6.446c-.38.598-.936 1.063-1.666 1.394-.73.33-1.711.497-2.943.497-1.142 0-2.12-.28-2.933-.84l.781-3.038a3.654 3.654 0 00.723.325c.191.064.41.122.658.172.247.05.504.076.771.076.394 0 .711-.063.952-.19s.426-.335.553-.621c.127-.286.209-.656.247-1.108.038-.451.058-1.002.058-1.652v-6.894h3.713v6.894c0 1.031-.057 1.97-.171 2.817-.114.847-.362 1.57-.743 2.168zm-20.835-4.985v6.665h-3.714v-13.56h2.895l5.428 6.895v-6.894h3.714v13.56h-2.952l-5.371-6.666zm-7.141 4.689a6.562 6.562 0 01-2.057 1.518c-.8.382-1.676.573-2.629.573-.965 0-1.844-.197-2.637-.592A6.582 6.582 0 0158.6 34.56a7.086 7.086 0 01-1.314-2.206 7.206 7.206 0 01-.467-2.56c0-.89.162-1.75.486-2.578a6.86 6.86 0 011.362-2.187 6.689 6.689 0 012.066-1.508c.793-.375 1.666-.564 2.619-.564.964 0 1.844.198 2.637.592a6.537 6.537 0 012.038 1.566c.565.65 1 1.388 1.305 2.216.305.828.457 1.674.457 2.54 0 .891-.162 1.747-.486 2.569a7.067 7.067 0 01-1.342 2.177zm-2.114-6.15a3.654 3.654 0 00-.505-1.126 2.563 2.563 0 00-.848-.784c-.343-.197-.742-.295-1.2-.295-.469 0-.872.101-1.209.305a2.622 2.622 0 00-.837.812 3.708 3.708 0 00-.496 1.145 5.328 5.328 0 00-.161 1.308c0 .459.053.902.161 1.328.108.427.276.805.505 1.136.228.331.514.6.857.802.342.204.742.306 1.2.306.47 0 .876-.105 1.219-.315a2.58 2.58 0 00.837-.821c.216-.337.378-.723.486-1.156.108-.432.162-.872.162-1.318 0-.458-.057-.9-.171-1.327zm-13.465 8.126l-2.571-4.163h-1.39v4.163h-3.714v-13.56h6.208c.66 0 1.27.138 1.83.412.557.273 1.037.63 1.436 1.069.4.44.715.942.944 1.508.228.567.342 1.137.342 1.71 0 .79-.171 1.525-.514 2.206a4.497 4.497 0 01-1.428 1.67l3.047 4.985h-4.19zm-1.028-9.94c-.23-.248-.458-.373-.686-.373H48.42v2.904h2.342c.229 0 .441-.128.638-.383.197-.254.296-.61.296-1.07 0-.47-.115-.83-.343-1.078zM3.891 51v-2.56h33.176V15.173h2.552V51H3.89zM1.34 46.735V12.613h34.027v34.122H1.339zm27.13-13.989c-.115.847-.362 1.57-.744 2.168-.38.598-.936 1.063-1.666 1.394-.73.33-1.71.497-2.942.497-1.143 0-2.12-.28-2.933-.84l.78-3.038a3.647 3.647 0 00.723.325c.192.064.411.122.659.172.247.05.504.076.77.076.394 0 .712-.063.953-.19a1.24 1.24 0 00.552-.621c.127-.286.21-.656.248-1.108.038-.451.057-1.002.057-1.652v-6.894h3.714v6.894c0 1.031-.057 1.97-.171 2.817zm-12.61 3.848l-2.571-4.163H11.9v4.163H8.185v-13.56h6.208a4.1 4.1 0 011.829.412c.558.273 1.037.63 1.437 1.069.4.44.715.942.943 1.508.229.567.343 1.137.343 1.71 0 .79-.171 1.525-.514 2.206a4.496 4.496 0 01-1.429 1.67l3.048 4.985h-4.19zm-1.028-9.94c-.23-.248-.458-.373-.686-.373h-2.248v2.904h2.343c.229 0 .441-.128.638-.383.197-.254.295-.61.295-1.07 0-.47-.114-.83-.342-1.078z" id="Shape"/></g></g></svg>
